public/icon/svg/Z.library.svg

<?xml version="1.0" encoding="UTF-8"?>
<svg width="1024px" height="1024px" viewBox="0 0 1024 1024" version="1.1" xmlns="http://www.w3.org/2000/svg" xmlns:xlink="http://www.w3.org/1999/xlink">
    <title>Z.library</title>
    <g id="ICON-新版方图标" stroke="none" stroke-width="1" fill="none" fill-rule="evenodd">
        <g id="Z.library" fill-rule="nonzero">
            <rect id="矩形" fill="#FFFFFF" x="0" y="0" width="1024" height="1024" rx="4"></rect>
            <path d="M493.725867,543.844267 L493.787733,543.8208 L495.556267,548.9792 C502.2848,546.199467 509.5744,544.5184 517.288533,544.405333 C525.5488,544.2688 533.525333,545.9008 540.8896,548.904533 L542.583467,544.206933 L542.858667,544.305067 L678.231467,117.710933 L669.92,117.710933 L537.301333,535.172267 L619.953067,117.710933 L611.8912,117.710933 L530.9568,525.352533 L569.710933,117.710933 L561.749333,117.710933 L522.197333,536.891733 C521.623467,536.853333 521.077333,536.768 520.503467,536.7424 L521.3504,536.7296 L523.842133,117.710933 L515.880533,117.710933 L513.399467,536.853333 L513.6,536.853333 C513.250133,536.878933 512.9152,536.9408 512.565333,536.9664 L477.888,117.710933 L469.9008,117.710933 L503.744,529.252267 L414.973867,117.710933 L406.8608,117.710933 L493.3248,518.574933 L361.7152,117.710933 L353.354667,117.710933 L493.725867,543.844267 Z" id="路径" fill="#C7C6C7"></path>
            <polygon id="路径" fill="#49AFD0" points="560.529067 944.842667 560.529067 692.512 471.072 692.512 471.072 944.842667 515.7952 898.811733"></polygon>
            <polygon id="路径" fill="#626062" points="805.088 89.6042667 698.6496 117.71584 539.650133 548.497067 495.837867 548.497067 337.4976 115.42272 230.385067 89.6042667 435.639467 647.3856 601.915733 647.547733"></polygon>
        </g>
    </g>
</svg>

<svg xmlns="http://www.w3.org/2000/svg" width="1024" height="1024"><g fill="none" fill-rule="nonzero"><rect width="1024" height="1024" fill="#FFF" rx="4"/><path fill="#C7C6C7" d="m493.726 543.844.062-.023 1.768 5.158c6.729-2.78 14.018-4.46 21.733-4.574 8.26-.136 16.236 1.496 23.6 4.5l1.694-4.698.276.098L678.23 117.711h-8.311L537.301 535.172l82.652-417.461h-8.062l-80.934 407.642L569.71 117.71h-7.962l-39.552 419.18c-.574-.038-1.12-.123-1.694-.149l.847-.012 2.492-419.02h-7.961l-2.482 419.143h.201c-.35.026-.685.088-1.035.113l-34.677-419.255h-7.987l33.843 411.541-88.77-411.541h-8.113l86.464 400.864-131.61-400.864h-8.36l140.37 426.133"/><path fill="#49AFD0" d="M560.53 944.843V692.512h-89.458v252.33l44.723-46.03z"/><path fill="#626062" d="M805.088 89.604 698.65 117.716l-159 430.781h-43.812l-158.34-433.074-107.113-25.819L435.64 647.386l166.277.162z"/></g></svg>
